modules/themify-icons/icons/layout-grid3.svg

<?xml version="1.0" encoding="utf-8"?>
<!-- Generated by IcoMoon.io -->
<!DOCTYPE svg PUBLIC "-//W3C//DTD SVG 1.1//EN" "http://www.w3.org/Graphics/SVG/1.1/DTD/svg11.dtd">
<svg version="1.1" xmlns="http://www.w3.org/2000/svg" xmlns:xlink="http://www.w3.org/1999/xlink" width="17" height="17" viewBox="0 0 17 17">
<g>
</g>
	<path d="M0 5h5v-5h-5v5zM1 1h3v3h-3v-3zM6 5h5v-5h-5v5zM7 1h3v3h-3v-3zM12 0v5h5v-5h-5zM16 4h-3v-3h3v3zM0 11h5v-5h-5v5zM1 7h3v3h-3v-3zM6 11h5v-5h-5v5zM7 7h3v3h-3v-3zM12 11h5v-5h-5v5zM13 7h3v3h-3v-3zM0 17h5v-5h-5v5zM1 13h3v3h-3v-3zM6 17h5v-5h-5v5zM7 13h3v3h-3v-3zM12 17h5v-5h-5v5zM13 13h3v3h-3v-3z" fill="#000000" />
</svg>

<svg xmlns="http://www.w3.org/2000/svg" width="17" height="17" viewBox="0 0 17 17"><path d="M0 5h5V0H0v5zm1-4h3v3H1V1zm5 4h5V0H6v5zm1-4h3v3H7V1zm5-1v5h5V0h-5zm4 4h-3V1h3v3zM0 11h5V6H0v5zm1-4h3v3H1V7zm5 4h5V6H6v5zm1-4h3v3H7V7zm5 4h5V6h-5v5zm1-4h3v3h-3V7zM0 17h5v-5H0v5zm1-4h3v3H1v-3zm5 4h5v-5H6v5zm1-4h3v3H7v-3zm5 4h5v-5h-5v5zm1-4h3v3h-3v-3z"/></svg>
